X:1
T:Take Courage
T:Take Courage
T:John Robson Sweney
T:Charles T. Haines, 1884
T:Public Domain Courtesy of the Cyber Hymnal™
T:Public Domain Courtesy of the Cyber Hymnal™
C:John Robson Sweney
Z:Public Domain
Z:Courtesy of the Cyber Hymnal™
%%score ( 1 2 ) ( 3 4 )
L:1/8
Q:1/4=84
M:6/8
K:Ab
V:1 treble 
V:2 treble 
V:3 bass 
V:4 bass 
V:1
 [CE] | [Cc][Cc][Cc] [Cc][DB][Ec] | [Ec][EB][EB] [EB]2 (c/d/) | [Ee][Ec][EA] [FB][EA][DG] | %4
w: 1.~Thank|God and take cour- age, re-|joice ev- er- more! For *|He on whose prom- ise we|
w: 2.~Thank|God and take cour- age, of|this we are sure, That *|He, our Re- deem- er and|
w: 3.~Thank|God and take cour- age, tho’|tri- als we meet, Re- *|mem- ber the Sav- ior is|
w: 4.~Thank|God and take cour- age, our|vi- gor re- new, Press *|on to the man- sions a-|
 [CA]3- [CA]2 [CE] | [Cc][Cc][Cc] [Cc][DB][Ec] | [Ec][EB][EB] [EB]2 (c/d/) | %7
w: stand * Shall|know of a sure- ty the|way that we go, And *|
w: friend, * Whose|good- ness and mer- cy thus|far we have proved, Will *|
w: nigh; * One|kind, gen- tle word from His|dear, lov- ing voice Will *|
w: bove, * The|man- sions that Je- sus has|gone to pre- pare For *|
 [Ee][Ec][EA] [FB][EA][DG] | [CA]3- [CA]2 ||"^Refrain" [Ae] | [Ae][GB][Ac] [Bd]2 [Ge] | %11
w: pros- per the work of our|hand. *|||
w: lead us safe on to the|end. *|||
w: sweep ev- ery cloud from the|sky. *|||
w: those who a- bide in His|love. *|||
 [Ae][CA][DB] [Ec]2 E | [DF][FA][FA] E[EA][Ec] | [Ec][EB][EB] [EB]2 (c/d/) | %14
w: |||
w: |||
w: |||
w: |||
 [Ee][Ee][Ec] [Ed][Ed] ([Ed]/[Ec]/) | [CA][CA][EG] [DF]2 [DF] | %16
w: ||
w: ||
w: ||
w: ||
 [CE][EA][EB] [Ec]!fermata![Ee][EA] | [FB][EA][DG] [CA]2 |] %18
w: ||
w: ||
w: ||
w: ||
V:2
 x | x6 | x5 E | x6 | x6 | x6 | x5 E | x6 | x5 || x | x6 | x5 E | x3 E x2 | x5 E | x6 | x6 | x6 | %17
 x5 |] %18
V:3
 [A,,A,] | [A,,E,][A,,E,][A,,E,] [A,,E,][A,,A,][A,,A,] | [E,A,][E,G,][E,G,] [E,G,]2 (A,/B,/) | %3
w: ~|~ ~ ~ ~ ~ ~|~ ~ ~ ~ ~ *|
 [A,C][A,C][A,C] [D,D][E,C][E,B,] | [A,,A,]3- [A,,A,]2 [A,,A,] | %5
w: ~ ~ ~ ~ ~ ~|~ * ~|
 [A,,E,][A,,E,][A,,E,] [A,,E,][A,,A,][A,,A,] | [E,A,][E,G,][E,G,] [E,G,]2 (A,/B,/) | %7
w: ~ ~ ~ ~ ~ ~|~ ~ ~ ~ ~ *|
 [A,C][A,C][A,C] [D,D][E,C][E,B,] | [A,,A,]3- [A,,A,]2 || [A,C] | [E,B,][E,E][E,E] [E,E]2 [E,D] | %11
w: ~ ~ ~ ~ ~ ~|~ *|Re-|joice ev- er- more! re-|
 [A,C]A,A, A,2 [C,A,] | [D,A,][D,D][D,D] [C,A,][C,A,][A,,A,] | %13
w: joice ev- er- more! Till|shout- ing we an- chor on|
 [E,A,][E,G,][E,G,] [E,G,]2 (A,/B,/) | [A,C][A,C]A, [G,B,][G,B,]A, | %15
w: Ca- naan’s bright shore; Then *|pur- er and sweet- er our|
 [F,A,][F,A,][C,A,] [D,A,]2 [D,A,] | [A,,A,][C,A,][E,G,] A,!fermata![A,C][A,C] | %17
w: rap- ture will be, For|there in His beau- ty the|
 [D,D][E,C][E,B,] [A,,A,]2 |] %18
w: King we shall see.|
V:4
 x | x6 | x5 A, | x6 | x6 | x6 | x5 A, | x6 | x5 || x | x6 | x A,A, A,2 x | x6 | x5 A, | %14
 x2 A, x A, x | x6 | x3 A, x2 | x5 |] %18

